app/dist/common/images/foxconn-industrial-internet.svg

<svg height="18" viewBox="0 0 18 18" width="18" xmlns="http://www.w3.org/2000/svg"><path d="m0 0h18v18h-18z" fill="#f0f3fa"/><path d="m4.6 7.8-1.6 5.2h2.1l1.5-4.94c.28-.9 1.04-1.6 1.9-1.6h3.48l.45-1.46h-4.29a3.79 3.79 0 0 0 -3.55 2.8z" fill="#022c6b"/><path d="m6.55 9.1c.1-.33.39-.55.72-.55h1.67l-.28.92a.75.75 0 0 1 -.72.53h-1.64zm2.97-1.55c.1-.33.39-.55.72-.55h1.66l-.28.92a.75.75 0 0 1 -.71.53h-1.64z" fill="#022c6b"/><path d="m12.62 5.55c.09-.33.38-.55.72-.55h1.66l-.28.92a.75.75 0 0 1 -.72.53h-1.64z" fill="#d30536"/><path d="m9.11 9h2.16l-1.11 4h-2.16z" fill="#022c6b"/><path d="m12.23 7h2.16l-1.62 6h-2.15z" fill="#d30536"/></svg>

<!-- by TradingView --><svg width="18" height="18" viewBox="0 0 18 18" xmlns="http://www.w3.org/2000/svg"><path fill="#F0F3FA" d="M0 0h18v18H0z"/><path d="M4.6 7.8 3 13h2.1L6.6 8.06c.28-.9 1.04-1.6 1.9-1.6h3.48L12.43 5H8.14a3.79 3.79 0 0 0-3.55 2.8Z" fill="#022C6B"/><path d="M6.55 9.1c.1-.33.39-.55.72-.55h1.67l-.28.92a.75.75 0 0 1-.72.53H6.3l.25-.9ZM9.52 7.55c.1-.33.39-.55.72-.55h1.66l-.28.92a.75.75 0 0 1-.71.53H9.27l.25-.9Z" fill="#022C6B"/><path d="M12.62 5.55c.09-.33.38-.55.72-.55H15l-.28.92a.75.75 0 0 1-.72.53h-1.64l.26-.9Z" fill="#D30536"/><path d="M9.11 9h2.16l-1.11 4H8l1.11-4Z" fill="#022C6B"/><path d="M12.23 7h2.16l-1.62 6h-2.15l1.61-6Z" fill="#D30536"/></svg>
